!!!COM: Tulebayev, Mukan
!!!CDT: 1913-1960
!!!OTL: National Anthem, Kazakhstan
!!!ENC: Davis, Matthew J.
!!Vocal Line Only
**kern
*clefG2
*k[b-e-a-d-]
*A-:
*M3/4
=1-
2.r
2.r
=2
2r
8.e-
16e-
==!|:3
4a-
4e-
8.a-
16b-
=4
2cc
8.b-
16a-
=5
4b-
4a-
4f
=6
2e-
8.c
16c
=7
4f
4f
4g
=8
2a-
6g
6f
6g
=9
2b-
8.dd-
16cc
=10
2b-
3e-
6e-
=11
4a-
4e-
8.a-
16b-
=12
2cc
6cc
6b-
6cc
=13
2ee-
8.cc
16b-
=14
2a-
8.b-
16cc
=15
4.dd-
8cc
6ee-
6dd-
6cc
=16
2b-
8.f
16g
=17
4.b-
8f
8.g
16f
=18
2e-
3e-
6e-
=19
2cc
8a-
8b-
=20
4cc
8.a-
16b-
8cc
8a-
=21
2b-
3e-
6e-
=22
2dd-
8b-
8cc
=23
4dd-
8cc
8a-
8b-
8g
=24
2a-
3e-
6e-
=25
2ee-
8.cc
16dd-
=26
4ee-
8.dd-
16cc
4b-
=27
2f
8e-
8e-
=28
!First and Second Ending
4f
8g
8a-
8g
8f
=29
2b-
8cc
8ddn
=30
[2ff
8ff]
8ddn
31
2ee-
8.e-
16e-
Repeat from measure 3 to measure 31 two times before going on to the third ending
==:|!32
!Third Ending
4f
8g
8a-
8b-
8dd
=33
*M4/4
4.cc
8a-
8b-
8cc
8b-
8g
=34
1a-
==|!
*-
